!!!COM: Palestrina, Giovanni Perluigi da
!!!OPR: Missa Veni Sancte Spiritus
!!!OMD: Sanctus
!!!OTL: First Section
**kern	**kern	**kern	**kern	**kern
*Ibass	*Itenor	*Itenor	*Icalto	*Icant
!Bassus	!Tenor 2	!Tenor 1	!Altus	!Cantus
*clefF4	*clefGv2	*clefGv2	*clefG2	*clefG2
*k[b-]	*k[b-]	*k[b-]	*k[b-]	*k[b-]
*G:dor	*G:dor	*G:dor	*G:dor	*G:dor
*M4/2	*M4/2	*M4/2	*M4/2	*M4/2
=1	=1	=1	=1	=1
0r	0r	1.g	1r	2.g
.	.	.	.	4a
.	.	.	[1g	4b-
.	.	.	.	4cc
.	.	2f	.	[2dd
=2	=2	=2	=2	=2
0r	2r	1e-	1g]	2dd]
.	1g	.	.	2cc
.	.	1d	1a	1dd
.	2f	.	.	.
=3	=3	=3	=3	=3
1.G	1e-	2r	1.b-	4g
.	.	.	.	4a
.	.	4G	.	4b-
.	.	4A	.	4cc
.	1d	4B-	.	4dd
.	.	4c	.	4ee
2F	.	[2d	2a	2ff
=4	=4	=4	=4	=4
1E-	1G	2d]	1g	1gg
.	.	2c	.	.
1D	1A	[1d	1f#	1r
=5	=5	=5	=5	=5
2.G	2.B-	2d]	2g	0dd
.	.	1g	1b-	.
4A	4c	.	.	.
4B-	1d	.	.	.
4c	.	.	.	.
[2d	.	2f	2a	.
=6	=6	=6	=6	=6
2d]	1A	1e	1a	1ee
2c	.	.	.	.
1B-	2r	2r	4d	[1ff
.	.	.	4e	.
.	4d	[2d	4f	.
.	4e	.	4g	.
=7	=7	=7	=7	=7
1A	4f	2d]	1a	2ff]
.	4g	.	.	.
.	1a	2c	.	2ee
1r	.	1B-	1d	1dd
.	2g	.	.	.
=8	=8	=8	=8	=8
1r	2.a	1A	2e	1cc#
.	.	.	2.a	.
.	4g	.	.	.
2.D	4f	1d	.	2dd
.	4e	.	4g	.
.	2d	.	4f	[2ff
4E	.	.	4g	.
=9	=9	=9	=9	=9
4F	1A	1c	4a	4ff]
4G	.	.	4b-	8ee
.	.	.	.	8dd
2A	.	.	4cc	2cc
.	.	.	4a	.
2.G	2r	2.B-	4b-	1dd
.	.	.	4g	.
.	[2B-	.	[2b-	.
4F	.	4A	.	.
=10	=10	=10	=10	=10
1E-	2B-]	1G	4b-]	0r
.	.	.	4a	.
.	2c	.	1g	.
1D	1d	1A	.	.
.	.	.	2f#	.
=11	=11	=11	=11	=11
2r	2e-	1G	1g	1.b-
1G	4d	.	.	.
.	4c	.	.	.
.	2d	1r	2r	.
2A	2c	.	[2f	2cc
=12	=12	=12	=12	=12
1B-	0r	0r	2f]	1dd
.	.	.	1g	.
1c	.	.	.	1ee-
.	.	.	2a	.
=13	=13	=13	=13	=13
2.B-	1f	2r	1.b-	1.dd
.	.	1B-	.	.
4A	.	.	.	.
2G	2g	.	.	.
4F	[2a	2c	2a	[2ff
4E-	.	.	.	.
=14	=14	=14	=14	=14
1D	2a]	1d	1f	4ff]
.	.	.	.	4ee-
.	2.b-	.	.	4dd
.	.	.	.	4cc
1r	.	1e-	1g	2b-
.	4a	.	.	.
.	[2g	.	.	2cc
=15	=15	=15	=15	=15
1r	2g]	1d	1a	1.dd
.	2f	.	.	.
2r	2d	2B-	2b-	.
[2F	[2f	2c	[2a	4cc
.	.	.	.	4b-
=16	=16	=16	=16	=16
2F]	4f]	1d	2a]	2a
.	4e	.	.	.
2G	1d	.	4g	2.b-
.	.	.	4f	.
1A	.	1r	2e	.
.	.	.	.	4a
.	2c#	.	[2f	[2a
=17	=17	=17	=17	=17
1B-	1d	0r	4f]	2a]
.	.	.	4e	.
.	.	.	1d	2g
1A	1e	.	.	1a
.	.	.	2c#	.
=18	=18	=18	=18	=18
1.G	2.g	2r	1d	1.b-
.	.	1B-	.	.
.	4f	.	.	.
.	4d	.	1r	.
.	4e	.	.	.
2A	[2f	2c	.	4a
.	.	.	.	4g
=19	=19	=19	=19	=19
2.B-	4f]	1d	2r	1f
.	4e-	.	.	.
.	4d	.	2f	.
4A	4c	.	.	.
4G	2.B-	2e-	2g	2r
4F	.	.	.	.
[2G	.	[2d	2g	[2b-
.	4A	.	.	.
=20	=20	=20	=20	=20
4G]	1G	2d]	1g	2b-]
4F	.	.	.	.
2E-	.	1c	.	2cc
1D	2A	.	1f	1dd
.	2F	[2B-	.	.
=21	=21	=21	=21	=21
1C	1c	4B-]	2g	1ee-
.	.	8A	.	.
.	.	8G	.	.
.	.	2A	2c	.
1BB-	2r	4B-	2.f	1dd
.	.	4c	.	.
.	[2F	4d	.	.
.	.	4e	4g	.
=22	=22	=22	=22	=22
0r	2F]	2f	2a	2cc
.	2G	1d	4g	2b-
.	.	.	4f	.
.	1A	.	2e	2.a
.	.	2c#	[2f	.
.	.	.	.	4g
=23	=23	=23	=23	=23
0r	1B-	1d	2f]	4f
.	.	.	.	4d
.	.	.	2g	1dd
.	1A	1e	1a	.
.	.	.	.	2cc#
=24	=24	=24	=24	=24
1.BB-	2.f	1d	2.b-	2dd
.	.	.	.	1ff
.	4e-	.	4a	.
.	2d	1r	1g	.
2C	4c	.	.	2ee-
.	4B-	.	.	.
=25	=25	=25	=25	=25
1D	2A	2r	1f	2.dd
.	2d	1B-	.	.
.	.	.	.	4cc
1E-	1G	.	2.g	4b-
.	.	.	.	4a
.	.	2c	.	[2g
.	.	.	4a	.
=26	=26	=26	=26	=26
1D	2r	1d	2b-	2g]
.	2A	.	2.a	2f#
1C	2c	1e-	.	1g
.	.	.	4g	.
.	2c	.	[2g	.
=27	=27	=27	=27	=27
[0D	2B-	1.d	2g]	[0dd
.	4A	.	4f#	.
.	4G	.	4e	.
.	2A	.	4f#	.
.	.	.	4g	.
.	2A	2c	[2a	.
=28	=28	=28	=28	=28
0D]	1d	2B-	2a]	1dd]
.	.	4A	1g	.
.	.	4G	.	.
.	1d	2A	.	1a
.	.	2A	2f#	.
=29	=29	=29	=29	=29
[0G	[0d	[0G	[0g	[0b
=30	=30	=30	=30	=30
0G]	0d]	0G]	0g]	0b]
*-	*-	*-	*-	*-
!!!CDT: 1525/^1526/-1594/2/2
!!!OCY: Italia
!!!AGN: Mass (Parody)
!!!AST: renaissance, vocal
!!!ASW: Motet (unidentified (Pal?))
!!!PWK: Masses, Book 4
!!!RNB: Cadence finals: D
!!!YOR: Le Opere Complete, v. 10, p. 115
!!!YOO: Rome, Italy: Fratelli Scalera
!!!END: 1992//
!!!EED: John Miller
!!!YEC: Copyright 2000, John Miller
!!!YEN: United States of America
!!!YEM: Rights to all derivative electronic formats reserved.
!!!YEM: Refer to licensing agreement for further details.
!!!YEM: This file must be accompanied by the licensing agreement.
!!!YEM: A copy of the licensing agreement may be found at http://www.music-cog.ohio-state.edu/HumdrumDatabases/Palestrina/license.txt
!!!EMD: converted to Humdrum by Bret Aarden
